X: 1
T: Patrick Conneely's
M: 4/4
L: 1/8
R: reel
K: Gmaj
e3d Bddg|edBD G2Bd|e3d Bddg|edgd BAA2:|
g2eg fdef|g3b adef|g2eg fedG|BAGA B/c/d ef|
g2eg fdef|g3b a2ga|aggf gfed|BABd eaag||
